file/hyatt.svg

<svg clip-rule="evenodd" fill-rule="evenodd" stroke-linejoin="round" stroke-miterlimit="1.41421" viewBox="0 0 560 400" xmlns="http://www.w3.org/2000/svg"><g fill="#4b77a9" fill-rule="nonzero"><path d="m0 0-4.67 11.742-4.643-11.664c1.208.038 2.43.06 3.679.06 1.928 0 3.804-.047 5.634-.138m38.758-11.905c-10.008 4.352-21.263 7.575-34.488 8.663l4.027-9.78h-3.117l-3.975 9.991c-2.221.123-4.499.192-6.834.192-1.656 0-3.282-.034-4.882-.099l-4.013-10.084h-3.119l4.083 9.922c-14.028-.92-25.975-4.244-36.469-8.802v.616c7.004 3.909 13.93 6.827 21.407 8.733v6.003l-8.421 12.927h3.129l6.682-10.741 6.685 10.741h3.125l-8.419-12.927-.002-5.345c4.279.929 8.752 1.543 13.535 1.834l6.94 16.866h1.391l6.995-17c4.695-.375 9.096-1.066 13.315-2.077v16.4h-6.88v2.249h16.606v-2.249h-6.877v-17.139c6.784-1.895 13.149-4.651 19.576-8.281zm11.126 28.282h-16.604v-2.249h6.879v-20.27h2.847v20.27h6.878zm-95.319-22.519-2.847-.003v11.112h-12.278v-11.109h-2.847v22.519h2.847v-9.163h12.278v9.163h2.847z" transform="matrix(3.0174 0 0 -3.0174 285.615924 205.7082418)"/><path d="m0 0c-.136.08-.356.119-.658.119h-.464v-1.127h.491c.233 0 .403.025.52.07.211.089.321.249.321.485 0 .225-.072.375-.21.453m-.586.487c.381 0 .663-.037.844-.109.319-.134.478-.398.478-.786 0-.275-.1-.48-.3-.612-.108-.069-.254-.116-.449-.147.247-.038.421-.139.535-.303.108-.164.165-.325.165-.482v-.225c0-.073.003-.15.008-.229.005-.082.013-.135.027-.164l.019-.038h-.507c-.003.011-.006.02-.009.03-.003.011-.003.025-.006.037l-.013.1v.246c0 .356-.101.592-.293.707-.118.065-.316.1-.607.1h-.428v-1.22h-.548v3.095zm-1.658.16c-.473-.475-.707-1.049-.707-1.719 0-.675.233-1.251.703-1.727.471-.478 1.042-.714 1.715-.714.672 0 1.244.236 1.718.714.469.476.705 1.052.705 1.727 0 .67-.236 1.244-.705 1.719-.477.473-1.049.711-1.718.711s-1.237-.238-1.711-.711m3.705-3.714c-.548-.555-1.212-.831-1.994-.831-.781 0-1.445.276-1.995.831-.544.553-.816 1.217-.816 1.998 0 .775.275 1.439.826 1.989.548.549 1.21.824 1.985.824.782 0 1.446-.275 1.994-.824.553-.545.828-1.211.828-1.989s-.275-1.444-.828-1.998" transform="matrix(3.0174 0 0 -3.0174 458.799597 161.5848016)"/></g></svg>

<?xml version="1.0" encoding="UTF-8" standalone="no"?>
<!DOCTYPE svg PUBLIC "-//W3C//DTD SVG 1.1//EN" "http://www.w3.org/Graphics/SVG/1.1/DTD/svg11.dtd">
<svg width="100%" height="100%" viewBox="0 0 560 400" version="1.1" xmlns="http://www.w3.org/2000/svg" xmlns:xlink="http://www.w3.org/1999/xlink" xml:space="preserve" xmlns:serif="http://www.serif.com/" style="fill-rule:evenodd;clip-rule:evenodd;stroke-linejoin:round;stroke-miterlimit:1.41421;">
    <g id="g859" transform="matrix(3.0174,5.00684e-32,-5.00684e-32,-3.0174,-69.7131,2261.14)">
        <g id="path867" transform="matrix(1,0,0,1,117.76,681.193)">
            <path d="M0,0L-4.67,11.742L-9.313,0.078C-8.105,0.116 -6.883,0.138 -5.634,0.138C-3.706,0.138 -1.83,0.091 0,0M38.758,-11.905C28.75,-7.553 17.495,-4.33 4.27,-3.242L8.297,-13.022L5.18,-13.022L1.205,-3.031C-1.016,-2.908 -3.294,-2.839 -5.629,-2.839C-7.285,-2.839 -8.911,-2.873 -10.511,-2.938L-14.524,-13.022L-17.643,-13.022L-13.56,-3.1C-27.588,-4.02 -39.535,-7.344 -50.029,-11.902L-50.029,-11.286C-43.025,-7.377 -36.099,-4.459 -28.622,-2.553L-28.622,3.45L-37.043,16.377L-33.914,16.377L-27.232,5.636L-20.547,16.377L-17.422,16.377L-25.841,3.45L-25.843,-1.895C-21.564,-0.966 -17.091,-0.352 -12.308,-0.061L-5.368,16.805L-3.977,16.805L3.018,-0.195C7.713,-0.57 12.114,-1.261 16.333,-2.272L16.333,14.128L9.453,14.128L9.453,16.377L26.059,16.377L26.059,14.128L19.182,14.128L19.182,-3.011C25.966,-4.906 32.331,-7.662 38.758,-11.292L38.758,-11.905ZM49.884,16.377L33.28,16.377L33.28,14.128L40.159,14.128L40.159,-6.142L43.006,-6.142L43.006,14.128L49.884,14.128L49.884,16.377ZM-45.435,-6.142L-48.282,-6.145L-48.282,4.967L-60.56,4.967L-60.56,-6.142L-63.407,-6.142L-63.407,16.377L-60.56,16.377L-60.56,7.214L-48.282,7.214L-48.282,16.377L-45.435,16.377L-45.435,-6.142Z" style="fill:rgb(75,119,169);fill-rule:nonzero;"/>
        </g>
        <g id="path871" transform="matrix(1,0,0,1,175.155,695.816)">
            <path d="M0,0C-0.136,0.08 -0.356,0.119 -0.658,0.119L-1.122,0.119L-1.122,-1.008L-0.631,-1.008C-0.398,-1.008 -0.228,-0.983 -0.111,-0.938C0.1,-0.849 0.21,-0.689 0.21,-0.453C0.21,-0.228 0.138,-0.078 0,0M-0.586,0.487C-0.205,0.487 0.077,0.45 0.258,0.378C0.577,0.244 0.736,-0.02 0.736,-0.408C0.736,-0.683 0.636,-0.888 0.436,-1.02C0.328,-1.089 0.182,-1.136 -0.013,-1.167C0.234,-1.205 0.408,-1.306 0.522,-1.47C0.63,-1.634 0.687,-1.795 0.687,-1.952L0.687,-2.177C0.687,-2.25 0.69,-2.327 0.695,-2.406C0.7,-2.488 0.708,-2.541 0.722,-2.57L0.741,-2.608L0.234,-2.608C0.231,-2.597 0.228,-2.588 0.225,-2.578C0.222,-2.567 0.222,-2.553 0.219,-2.541L0.206,-2.441L0.206,-2.195C0.206,-1.839 0.105,-1.603 -0.087,-1.488C-0.205,-1.423 -0.403,-1.388 -0.694,-1.388L-1.122,-1.388L-1.122,-2.608L-1.67,-2.608L-1.67,0.487L-0.586,0.487ZM-2.244,0.647C-2.717,0.172 -2.951,-0.402 -2.951,-1.072C-2.951,-1.747 -2.718,-2.323 -2.248,-2.799C-1.777,-3.277 -1.206,-3.513 -0.533,-3.513C0.139,-3.513 0.711,-3.277 1.185,-2.799C1.654,-2.323 1.89,-1.747 1.89,-1.072C1.89,-0.402 1.654,0.172 1.185,0.647C0.708,1.12 0.136,1.358 -0.533,1.358C-1.202,1.358 -1.77,1.12 -2.244,0.647M1.461,-3.067C0.913,-3.622 0.249,-3.898 -0.533,-3.898C-1.314,-3.898 -1.978,-3.622 -2.528,-3.067C-3.072,-2.514 -3.344,-1.85 -3.344,-1.069C-3.344,-0.294 -3.069,0.37 -2.518,0.92C-1.97,1.469 -1.308,1.744 -0.533,1.744C0.249,1.744 0.913,1.469 1.461,0.92C2.014,0.375 2.289,-0.291 2.289,-1.069C2.289,-1.847 2.014,-2.513 1.461,-3.067" style="fill:rgb(75,119,169);fill-rule:nonzero;"/>
        </g>
    </g>
</svg>
